assets/features/home/MOONTON.svg

<svg width="248" height="48" viewBox="0 0 248 48" fill="none" xmlns="http://www.w3.org/2000/svg">
<g clip-path="url(#clip0_22_162)">
<path d="M84.32 11.016C84.2601 10.716 84.0085 10.5 83.709 10.452C83.4094 10.416 83.1099 10.572 82.9781 10.836L74.6875 26.916L66.6605 10.848C66.5287 10.572 66.2411 10.416 65.9296 10.452C65.6301 10.488 65.3785 10.704 65.3066 11.004L59.5919 34.992C59.5439 35.208 59.5919 35.436 59.7236 35.604C59.8554 35.772 60.0711 35.88 60.2867 35.88H63.7611C64.0966 35.88 64.3841 35.652 64.456 35.34L67.4033 23.712L73.9567 36.516C74.0765 36.756 74.3281 36.912 74.5917 36.912C74.8552 36.912 75.1068 36.768 75.2266 36.528L81.9478 23.748L84.6794 35.34C84.7513 35.664 85.0508 35.892 85.3863 35.892H88.8367C89.0523 35.892 89.256 35.796 89.3998 35.628C89.5316 35.46 89.5915 35.232 89.5435 35.016L84.32 11.016Z" fill="#D9D9D9"/>
<path d="M176.751 12.1201C176.356 12.1201 176.032 12.4441 176.032 12.8401V16.0081C176.032 16.4041 176.356 16.7281 176.751 16.7281H183.304V35.1601C183.304 35.5561 183.628 35.8801 184.023 35.8801H187.39C187.785 35.8801 188.109 35.5561 188.109 35.1601V16.7281H194.362C194.758 16.7281 194.938 16.4401 195.081 16.0081L196.519 12.8401C196.519 12.4441 196.196 12.1201 195.8 12.1201H176.751Z" fill="#D9D9D9"/>
<path d="M209.842 11.7C206.451 11.7 203.504 12.912 201.084 15.288C198.652 17.676 197.418 20.568 197.418 23.892C197.418 27.672 198.771 30.768 201.443 33.108C203.851 35.208 206.619 36.276 209.662 36.276C213.088 36.276 216.059 35.076 218.492 32.7C220.912 30.336 222.146 27.408 222.146 24.024C222.146 20.652 220.924 17.724 218.516 15.324C216.107 12.924 213.196 11.7 209.842 11.7ZM209.71 31.692C207.733 31.692 206.032 30.984 204.51 29.508C202.989 28.044 202.246 26.232 202.246 23.94C202.246 21.768 202.965 19.992 204.438 18.528C205.912 17.04 207.661 16.32 209.794 16.32C211.938 16.32 213.687 17.04 215.137 18.528C216.599 20.004 217.306 21.804 217.306 24C217.306 26.172 216.587 27.96 215.101 29.472C213.627 30.96 211.866 31.692 209.71 31.692Z" fill="#D9D9D9"/>
<path d="M105.622 11.7C102.231 11.7 99.2838 12.912 96.8637 15.288C94.4317 17.676 93.1977 20.568 93.1977 23.892C93.1977 27.672 94.5515 30.768 97.2232 33.108C99.6313 35.208 102.399 36.276 105.442 36.276C108.868 36.276 111.84 35.076 114.272 32.7C116.692 30.336 117.926 27.408 117.926 24.024C117.926 20.652 116.704 17.724 114.296 15.324C111.888 12.924 108.976 11.7 105.622 11.7ZM105.49 31.692C103.513 31.692 101.812 30.984 100.29 29.508C98.7687 28.044 98.0259 26.232 98.0259 23.94C98.0259 21.768 98.7447 19.992 100.218 18.528C101.692 17.04 103.441 16.32 105.574 16.32C107.718 16.32 109.467 17.04 110.917 18.528C112.379 20.004 113.086 21.804 113.086 24C113.086 26.172 112.367 27.96 110.881 29.472C109.408 30.96 107.646 31.692 105.49 31.692Z" fill="#D9D9D9"/>
<path d="M134.447 11.7C131.057 11.7 128.109 12.912 125.689 15.288C123.257 17.676 122.023 20.568 122.023 23.892C122.023 27.672 123.377 30.768 126.049 33.108C128.457 35.208 131.224 36.276 134.267 36.276C137.694 36.276 140.665 35.076 143.097 32.7C145.517 30.336 146.751 27.408 146.751 24.024C146.751 20.652 145.529 17.724 143.121 15.324C140.713 12.924 137.802 11.7 134.447 11.7ZM134.315 31.692C132.339 31.692 130.637 30.984 129.116 29.508C127.594 28.044 126.851 26.232 126.851 23.94C126.851 21.768 127.57 19.992 129.044 18.528C130.517 17.04 132.267 16.32 134.399 16.32C136.544 16.32 138.293 17.04 139.743 18.528C141.204 20.004 141.911 21.804 141.911 24C141.911 26.172 141.192 27.96 139.707 29.472C138.233 30.96 136.472 31.692 134.315 31.692Z" fill="#D9D9D9"/>
<path d="M151.496 15.0481V35.1601C151.496 35.5561 151.819 35.8801 152.214 35.8801H155.581C155.976 35.8801 156.3 35.5561 156.3 35.1601V21.3361L171.3 36.5881C171.443 36.7321 171.623 36.8161 171.815 36.8161C171.911 36.8161 171.995 36.8041 172.078 36.7681C172.354 36.6601 172.534 36.3961 172.534 36.0961V12.8401C172.534 12.4441 172.21 12.1201 171.815 12.1201H168.448C168.053 12.1201 167.729 12.4441 167.729 12.8401V26.1121L154.671 12.8641C154.395 12.5881 153.928 12.5881 153.652 12.8641L151.496 15.0481Z" fill="#D9D9D9"/>
<path d="M226.578 15.0481V35.1601C226.578 35.5561 226.902 35.8801 227.297 35.8801H230.664C231.059 35.8801 231.383 35.5561 231.383 35.1601V21.3361L246.383 36.5881C246.526 36.7321 246.706 36.8161 246.898 36.8161C246.994 36.8161 247.077 36.8041 247.161 36.7681C247.437 36.6601 247.617 36.3961 247.617 36.0961V12.8401C247.617 12.4441 247.293 12.1201 246.898 12.1201H243.531C243.136 12.1201 242.812 12.4441 242.812 12.8401V26.1121L229.753 12.8641C229.478 12.5881 229.011 12.5881 228.735 12.8641L226.578 15.0481Z" fill="#D9D9D9"/>
<mask id="mask0_22_162" style="mask-type:luminance" maskUnits="userSpaceOnUse" x="0" y="0" width="48" height="48">
<path d="M10.531 16.944C11.4296 12.624 13.8497 8.85596 17.2043 6.23996C15.2754 5.23196 13.1907 4.53596 11.0342 4.17596C6.3378 7.28396 2.8035 12.012 1.258 17.568C4.26515 16.692 7.44002 16.476 10.531 16.944Z" fill="url(#paint0_radial_22_162)"/>
<path d="M13.5382 31.248C11.4056 28.26 10.1596 24.612 10.1596 20.664C10.1596 19.608 10.2555 18.576 10.4232 17.568C7.29626 17.1 4.08544 17.352 1.06631 18.3C0.623024 20.124 0.371429 22.032 0.371429 24C0.371429 28.98 1.90496 33.588 4.51674 37.404C6.91288 34.632 10.0159 32.496 13.5382 31.248Z" fill="url(#paint1_radial_22_162)"/>
<path d="M26.1658 38.7719C21.1938 38.1719 16.8329 35.5679 13.9335 31.7759C10.3873 32.9879 7.28427 35.1479 4.90012 37.9319C9.1892 43.8359 16.114 47.6759 23.9494 47.7119C25.3391 44.9399 26.1059 41.8799 26.1658 38.7719Z" fill="url(#paint2_radial_22_162)"/>
<path d="M41.5131 40.032C41.4651 38.064 41.1417 36.108 40.5426 34.236C37.3198 37.14 33.0547 38.904 28.3703 38.904C27.8431 38.904 27.316 38.88 26.7888 38.832C26.7169 41.904 25.9861 44.94 24.6323 47.712C31.3175 47.544 37.3079 44.616 41.5131 40.032Z" fill="url(#paint3_radial_22_162)"/>
<path d="M11.825 3.69596C13.8976 4.11596 15.9104 4.82396 17.7674 5.83196C20.7506 3.68396 24.4166 2.42396 28.3703 2.42396C33.1146 2.42396 37.3797 4.15196 40.5786 7.01996C36.3135 2.85596 30.4789 0.287964 24.0572 0.287964C19.5764 0.287964 15.3952 1.52396 11.825 3.69596Z" fill="url(#paint4_radial_22_162)"/>
<path d="M44.3285 11.736C45.7662 14.364 46.5809 17.388 46.5809 20.652C46.5809 25.788 44.4603 30.432 41.0458 33.744C41.6448 35.556 42.0043 37.44 42.1121 39.336C45.6224 35.196 47.731 29.844 47.731 23.988C47.731 19.512 46.497 15.324 44.3285 11.736Z" fill="url(#paint5_radial_22_162)"/>
<path d="M43.394 21.6599C43.8733 11.2919 35.2232 7.19995 35.2232 7.19995C38.2064 9.80395 41.6928 13.932 40.8182 20.688C40.4707 23.4 38.3022 25.8959 36.3374 26.8679C32.1801 28.9319 27.6275 26.004 28.3463 22.0679C28.6698 20.3039 30.5747 19.4399 31.2217 19.3799C29.4006 18.108 26.3935 18.552 24.7042 19.848C22.7274 21.372 22.2481 23.6159 22.2481 25.476C22.2481 27.8639 23.9254 30.2999 25.7106 31.5119C32.851 36.3119 42.9388 31.4999 43.394 21.6599Z" fill="url(#paint6_linear_22_162)"/>
<path d="M26.1299 33.7919C23.9853 32.8319 21.3376 31.4039 20.2114 27.3839C18.8936 22.6439 21.7689 19.0919 23.7218 17.8319C25.6267 16.6079 27.4597 16.4039 28.9813 16.4399C31.7967 16.5119 34.5523 18.4919 35.6066 20.2199C35.7024 19.0199 34.4564 13.9799 28.9094 12.9479C25.6387 12.3359 22.5237 13.2719 20.5229 14.8439C18.1028 16.7399 16.773 19.5599 16.6052 22.7639C16.4016 26.7959 17.971 31.3799 21.8528 33.8999C25.2912 36.1319 29.796 36.2399 33.3662 34.8479C30.1314 35.1359 27.6394 34.4759 26.1299 33.7919Z" fill="url(#paint7_linear_22_162)"/>
<path d="M38.8773 16.884C38.3023 12.12 34.72 7.33198 30.1314 6.35998C26.1299 5.50798 21.3017 6.53998 17.995 9.70798C13.0709 14.424 12.0885 21.9 14.9519 27.552C14.0653 23.244 14.1013 20.508 15.2994 17.58C17.2762 12.78 22.2841 10.02 27.9509 10.56C33.5819 11.1 37.1641 15.828 36.8885 21.012C36.8047 22.608 36.4932 23.58 36.1218 24.348C38.5059 22.488 39.2607 20.016 38.8773 16.884Z" fill="url(#paint8_linear_22_162)"/>
</mask>
<g mask="url(#mask0_22_162)">
<rect width="47.9517" height="48" fill="#D9D9D9"/>
</g>
</g>
<defs>
<radialGradient id="paint0_radial_22_162" cx="0" cy="0" r="1" gradientUnits="userSpaceOnUse" gradientTransform="translate(24.5034 2.51445) scale(43.6403 43.7107)">
<stop offset="0.2456" stop-color="#EDD900"/>
<stop offset="1" stop-color="#F29600"/>
</radialGradient>
<radialGradient id="paint1_radial_22_162" cx="0" cy="0" r="1" gradientUnits="userSpaceOnUse" gradientTransform="translate(24.5034 2.51445) scale(43.6403 43.7107)">
<stop offset="0.2456" stop-color="#EDD900"/>
<stop offset="1" stop-color="#F29600"/>
</radialGradient>
<radialGradient id="paint2_radial_22_162" cx="0" cy="0" r="1" gradientUnits="userSpaceOnUse" gradientTransform="translate(24.5034 2.51442) scale(43.6403 43.7107)">
<stop offset="0.2456" stop-color="#EDD900"/>
<stop offset="1" stop-color="#F29600"/>
</radialGradient>
<radialGradient id="paint3_radial_22_162" cx="0" cy="0" r="1" gradientUnits="userSpaceOnUse" gradientTransform="translate(24.5034 2.51445) scale(43.6403 43.7107)">
<stop offset="0.2456" stop-color="#EDD900"/>
<stop offset="1" stop-color="#F29600"/>
</radialGradient>
<radialGradient id="paint4_radial_22_162" cx="0" cy="0" r="1" gradientUnits="userSpaceOnUse" gradientTransform="translate(24.5034 2.51444) scale(43.6403 43.7107)">
<stop offset="0.2456" stop-color="#EDD900"/>
<stop offset="1" stop-color="#F29600"/>
</radialGradient>
<radialGradient id="paint5_radial_22_162" cx="0" cy="0" r="1" gradientUnits="userSpaceOnUse" gradientTransform="translate(24.5034 2.51444) scale(43.6403 43.7107)">
<stop offset="0.2456" stop-color="#EDD900"/>
<stop offset="1" stop-color="#F29600"/>
</radialGradient>
<linearGradient id="paint6_linear_22_162" x1="42.4363" y1="16.0796" x2="22.9312" y2="27.0729" gradientUnits="userSpaceOnUse">
<stop offset="0.098" stop-color="#54C2F0"/>
<stop offset="1" stop-color="#0075C1"/>
</linearGradient>
<linearGradient id="paint7_linear_22_162" x1="21.0256" y1="32.2797" x2="32.6804" y2="17.1846" gradientUnits="userSpaceOnUse">
<stop offset="0.098" stop-color="#54C2F0"/>
<stop offset="1" stop-color="#0075C1"/>
</linearGradient>
<linearGradient id="paint8_linear_22_162" x1="13.3599" y1="16.8131" x2="38.9738" y2="16.8131" gradientUnits="userSpaceOnUse">
<stop offset="0.098" stop-color="#54C2F0"/>
<stop offset="1" stop-color="#0075C1"/>
</linearGradient>
<clipPath id="clip0_22_162">
<rect width="248" height="48" fill="white"/>
</clipPath>
</defs>
</svg>

<svg xmlns="http://www.w3.org/2000/svg" width="248" height="48" fill="none" viewBox="0 0 248 48"><g clip-path="url(#a)"><path fill="#d9d9d9" d="M84.32 11.016a.73.73 0 0 0-.611-.564c-.3-.036-.6.12-.73.384l-8.291 16.08-8.028-16.068a.71.71 0 0 0-.73-.396.73.73 0 0 0-.623.552l-5.715 23.988a.74.74 0 0 0 .132.612.73.73 0 0 0 .563.276h3.474a.71.71 0 0 0 .695-.54l2.947-11.628 6.554 12.804a.72.72 0 0 0 .635.396.71.71 0 0 0 .635-.384l6.72-12.78L84.68 35.34a.72.72 0 0 0 .707.552h3.45a.74.74 0 0 0 .564-.264.74.74 0 0 0 .143-.612zm92.431 1.104a.72.72 0 0 0-.719.72v3.168c0 .396.324.72.719.72h6.553V35.16c0 .396.324.72.719.72h3.367a.72.72 0 0 0 .719-.72V16.728h6.253c.396 0 .576-.288.719-.72l1.438-3.168a.72.72 0 0 0-.719-.72zm33.091-.42c-3.391 0-6.338 1.212-8.758 3.588-2.432 2.388-3.666 5.28-3.666 8.604 0 3.78 1.353 6.876 4.025 9.216 2.408 2.1 5.176 3.168 8.219 3.168 3.426 0 6.397-1.2 8.83-3.576 2.42-2.364 3.654-5.292 3.654-8.676 0-3.372-1.222-6.3-3.63-8.7s-5.32-3.624-8.674-3.624m-.132 19.992c-1.977 0-3.678-.708-5.2-2.184-1.521-1.464-2.264-3.276-2.264-5.568 0-2.172.719-3.948 2.192-5.412 1.474-1.488 3.223-2.208 5.356-2.208 2.144 0 3.893.72 5.343 2.208 1.462 1.476 2.169 3.276 2.169 5.472 0 2.172-.719 3.96-2.205 5.472-1.474 1.488-3.235 2.22-5.391 2.22M105.622 11.7c-3.391 0-6.338 1.212-8.758 3.588-2.432 2.388-3.666 5.28-3.666 8.604 0 3.78 1.354 6.876 4.025 9.216 2.408 2.1 5.176 3.168 8.219 3.168 3.426 0 6.398-1.2 8.83-3.576 2.42-2.364 3.654-5.292 3.654-8.676 0-3.372-1.222-6.3-3.63-8.7s-5.32-3.624-8.674-3.624m-.132 19.992c-1.977 0-3.678-.708-5.2-2.184-1.521-1.464-2.264-3.276-2.264-5.568 0-2.172.719-3.948 2.192-5.412 1.474-1.488 3.223-2.208 5.356-2.208 2.144 0 3.893.72 5.343 2.208 1.462 1.476 2.169 3.276 2.169 5.472 0 2.172-.719 3.96-2.205 5.472-1.473 1.488-3.235 2.22-5.391 2.22M134.447 11.7c-3.39 0-6.338 1.212-8.758 3.588-2.432 2.388-3.666 5.28-3.666 8.604 0 3.78 1.354 6.876 4.026 9.216 2.408 2.1 5.175 3.168 8.218 3.168 3.427 0 6.398-1.2 8.83-3.576 2.42-2.364 3.654-5.292 3.654-8.676 0-3.372-1.222-6.3-3.63-8.7s-5.319-3.624-8.674-3.624m-.132 19.992c-1.976 0-3.678-.708-5.199-2.184-1.522-1.464-2.265-3.276-2.265-5.568 0-2.172.719-3.948 2.193-5.412 1.473-1.488 3.223-2.208 5.355-2.208 2.145 0 3.894.72 5.344 2.208 1.461 1.476 2.168 3.276 2.168 5.472 0 2.172-.719 3.96-2.204 5.472-1.474 1.488-3.235 2.22-5.392 2.22m17.181-16.644V35.16c0 .396.323.72.718.72h3.367a.72.72 0 0 0 .719-.72V21.336l15 15.252a.73.73 0 0 0 .515.228.717.717 0 0 0 .719-.72V12.84a.72.72 0 0 0-.719-.72h-3.367a.72.72 0 0 0-.719.72v13.272l-13.058-13.248a.73.73 0 0 0-1.019 0zm75.082 0V35.16c0 .396.324.72.719.72h3.367a.72.72 0 0 0 .719-.72V21.336l15 15.252a.73.73 0 0 0 .515.228.717.717 0 0 0 .719-.72V12.84a.72.72 0 0 0-.719-.72h-3.367a.72.72 0 0 0-.719.72v13.272l-13.059-13.248a.73.73 0 0 0-1.018 0z"/><mask id="k" width="48" height="48" x="0" y="0" maskUnits="userSpaceOnUse" style="mask-type:luminance"><path fill="url(#b)" d="M10.531 16.944A18.32 18.32 0 0 1 17.204 6.24a20.7 20.7 0 0 0-6.17-2.064c-4.696 3.108-8.23 7.836-9.776 13.392a21.6 21.6 0 0 1 9.273-.624"/><path fill="url(#c)" d="M13.538 31.248a18.14 18.14 0 0 1-3.378-10.584 19 19 0 0 1 .263-3.096 20.94 20.94 0 0 0-9.357.732A24 24 0 0 0 .371 24c0 4.98 1.534 9.588 4.146 13.404a21.35 21.35 0 0 1 9.021-6.156"/><path fill="url(#d)" d="M26.166 38.772a18.13 18.13 0 0 1-12.232-6.996c-3.547 1.212-6.65 3.372-9.034 6.156 4.29 5.904 11.214 9.744 19.05 9.78a20.9 20.9 0 0 0 2.216-8.94"/><path fill="url(#e)" d="M41.513 40.032a20.7 20.7 0 0 0-.97-5.796 18.1 18.1 0 0 1-13.754 4.596 21.4 21.4 0 0 1-2.157 8.88 23.66 23.66 0 0 0 16.881-7.68"/><path fill="url(#f)" d="M11.825 3.696a21.3 21.3 0 0 1 5.942 2.136A18.1 18.1 0 0 1 28.37 2.424c4.745 0 9.01 1.728 12.209 4.596A23.6 23.6 0 0 0 24.057.288c-4.48 0-8.662 1.236-12.232 3.408"/><path fill="url(#g)" d="M44.329 11.736c1.437 2.628 2.252 5.652 2.252 8.916 0 5.136-2.12 9.78-5.535 13.092a21.8 21.8 0 0 1 1.066 5.592 23.63 23.63 0 0 0 5.619-15.348c0-4.476-1.234-8.664-3.403-12.252"/><path fill="url(#h)" d="M43.394 21.66c.48-10.368-8.17-14.46-8.17-14.46 2.982 2.604 6.469 6.732 5.594 13.488-.347 2.712-2.516 5.208-4.48 6.18-4.158 2.064-8.71-.864-7.992-4.8.324-1.764 2.229-2.628 2.876-2.688-1.821-1.272-4.829-.828-6.518.468-1.977 1.524-2.456 3.768-2.456 5.628 0 2.388 1.677 4.824 3.463 6.036 7.14 4.8 17.228-.012 17.683-9.852"/><path fill="url(#i)" d="M26.13 33.792c-2.145-.96-4.792-2.388-5.919-6.408-1.317-4.74 1.558-8.292 3.51-9.552 1.906-1.224 3.739-1.428 5.26-1.392 2.816.072 5.571 2.052 6.626 3.78.095-1.2-1.15-6.24-6.698-7.272-3.27-.612-6.385.324-8.386 1.896-2.42 1.896-3.75 4.716-3.918 7.92-.203 4.032 1.366 8.616 5.248 11.136 3.438 2.232 7.943 2.34 11.513.948-3.235.288-5.727-.372-7.236-1.056"/><path fill="url(#j)" d="M38.877 16.884c-.575-4.764-4.157-9.552-8.746-10.524-4.001-.852-8.83.18-12.136 3.348-4.924 4.716-5.907 12.192-3.043 17.844-.887-4.308-.85-7.044.347-9.972 1.977-4.8 6.985-7.56 12.652-7.02 5.63.54 9.213 5.268 8.938 10.452-.084 1.596-.396 2.568-.767 3.336 2.384-1.86 3.139-4.332 2.755-7.464"/></mask><g mask="url(#k)"><path fill="#d9d9d9" d="M0 0h47.952v48H0z"/></g></g><defs><radialGradient id="b" cx="0" cy="0" r="1" gradientTransform="matrix(43.6403 0 0 43.7107 24.503 2.514)" gradientUnits="userSpaceOnUse"><stop offset=".246" stop-color="#edd900"/><stop offset="1" stop-color="#f29600"/></radialGradient><radialGradient id="c" cx="0" cy="0" r="1" gradientTransform="matrix(43.6403 0 0 43.7107 24.503 2.514)" gradientUnits="userSpaceOnUse"><stop offset=".246" stop-color="#edd900"/><stop offset="1" stop-color="#f29600"/></radialGradient><radialGradient id="d" cx="0" cy="0" r="1" gradientTransform="matrix(43.6403 0 0 43.7107 24.503 2.514)" gradientUnits="userSpaceOnUse"><stop offset=".246" stop-color="#edd900"/><stop offset="1" stop-color="#f29600"/></radialGradient><radialGradient id="e" cx="0" cy="0" r="1" gradientTransform="matrix(43.6403 0 0 43.7107 24.503 2.514)" gradientUnits="userSpaceOnUse"><stop offset=".246" stop-color="#edd900"/><stop offset="1" stop-color="#f29600"/></radialGradient><radialGradient id="f" cx="0" cy="0" r="1" gradientTransform="matrix(43.6403 0 0 43.7107 24.503 2.514)" gradientUnits="userSpaceOnUse"><stop offset=".246" stop-color="#edd900"/><stop offset="1" stop-color="#f29600"/></radialGradient><radialGradient id="g" cx="0" cy="0" r="1" gradientTransform="matrix(43.6403 0 0 43.7107 24.503 2.514)" gradientUnits="userSpaceOnUse"><stop offset=".246" stop-color="#edd900"/><stop offset="1" stop-color="#f29600"/></radialGradient><linearGradient id="h" x1="42.436" x2="22.931" y1="16.08" y2="27.073" gradientUnits="userSpaceOnUse"><stop offset=".098" stop-color="#54c2f0"/><stop offset="1" stop-color="#0075c1"/></linearGradient><linearGradient id="i" x1="21.026" x2="32.68" y1="32.28" y2="17.185" gradientUnits="userSpaceOnUse"><stop offset=".098" stop-color="#54c2f0"/><stop offset="1" stop-color="#0075c1"/></linearGradient><linearGradient id="j" x1="13.36" x2="38.974" y1="16.813" y2="16.813" gradientUnits="userSpaceOnUse"><stop offset=".098" stop-color="#54c2f0"/><stop offset="1" stop-color="#0075c1"/></linearGradient><clipPath id="a"><path fill="#fff" d="M0 0h248v48H0z"/></clipPath></defs></svg>
